X:18
T: The Knight on the Road, S. 66
N: I0517
O: Irland
S: O BOYLE, Sean: 25 Irish Folksongs, Dublin 1976]
R: Ballade]
M: 4/4
L: 1/4
K: F
C | FFFF | dcAG | F2DC | DF2
C | FFFF | dccA | A2GF | G2
Ac | d2dc | A2FG | AGFD | C2
CD | FFFF | dcAG | F2DC | DF2

@@@ Tune index: 7293
